src/icons/document.svg

<svg xmlns="http://www.w3.org/2000/svg" width="16" height="16" fill="none" viewBox="0 0 32 32"><path fill="#FFE6EA" d="M29 11v19c0 1-1 1-1 1H4c-1 0-1-1-1-1V2c0-1 1-1 1-1h15v9s0 1 1 1z"/><path fill="#668077" d="M29 11h-9c-1 0-1-1-1-1V1s1 0 2 1l7 7c1 1 1 2 1 2"/><path stroke="#000" stroke-linecap="round" stroke-linejoin="round" stroke-width="2" d="M19 1s1 0 2 1l7 7c1 1 1 2 1 2v19c0 1-1 1-1 1H4c-1 0-1-1-1-1V2c0-1 1-1 1-1zm0 0v9s0 1 1 1h5M9 17h6m-6 4h14M9 25h14"/></svg>

<!-- https://www.svgrepo.com/collection/nimble-tiny-flat-icons -->
<svg width="16" height="16" viewBox="0 0 32 32" fill="none" xmlns="http://www.w3.org/2000/svg">
<path d="M29 11V30C29 31 28 31 28 31H4C3 31 3 30 3 30V2C3 1 4 1 4 1H19V10C19 10 19 11 20 11H29Z" fill="#FFE6EA"/>
<path d="M29 11H20C19 11 19 10 19 10V1C19 1 20 1 21 2L28 9C29 10 29 11 29 11Z" fill="#668077"/>
<path d="M19 1C19 1 20 1 21 2L28 9C29 10 29 11 29 11V30C29 31 28 31 28 31H4C3 31 3 30 3 30V2C3 1 4 1 4 1H19ZM19 1V10C19 10 19 11 20 11H25M9 17H15M9 21H23M9 25H23" stroke="#000000" stroke-width="2" stroke-linecap="round" stroke-linejoin="round"/>
</svg>
